X: 39531
T: Tax Max, The
R: mazurka
M: 3/4
K: Bminor
(3ABc|:d4 (3edc|d3A de|f3d cA|B3A Bc|
de gf de|cB AE AB|cd ed (3cBA|1 B3 A Bc:|2 B3c de||
|:f3e fg|ab ag fe|f3d cA|B3A Bc|
de gf de|cB AE AB|cd ed (3cBA|1 B3c de:|2 B4||

